X: 13137
T: First House In Connaught, The
R: reel
M: 4/4
K: Gmajor
DG~G2 AG~G2|Bddc BGGE|DF~F2 AF~F2|ABcA BGAF|
DG~G2 AG~G2|Bddc BGGB|defg agfd|1 cAFA ~G3E:|2 cAFA G2Bd||
|:~g3a gede|g2bg ageg|fAde f2de|fgaf bgaf|
~g3a gede|g2bg agfe|defg agfd|1 cAFA G2Bd:|2 cAFA ~G3E||

